/* XPM */
static char * stick_toggled_prelight_xpm[] = {
"24 26 4 1",
" 	c None",
".	c #242933",
"+	c #5E81AC s active_color_1",
"@	c #8fbcbb",
"@@@@@@@@@@@@@@@@@@@@@@@@",
"........................",
"........................",
"........................",
"........................",
"........................",
"........................",
"........................",
"........................",
"...........++...........",
".........++++++.........",
".........++++++.........",
"........++++++++........",
"........++++++++........",
".........++++++.........",
".........++++++.........",
"...........++...........",
"........................",
"........................",
"........................",
"........................",
"........................",
"........................",
"........................",
"........................",
"........................"};
